X: 080344
T: Home to Mullach 
C: BB
R: jig
Q: 1/8=320
M: 6/8
L: 1/8
K: D
D |"D"FGA ABA |"Bm7"dcB A2 e | "D"f2 a "G"gfe | "D"ded "A"cBA |
"D"FGA ABA | "Bm"dcB "A"Ace | "Bm"fdB "A7"AGE | "D"D3 "D"D2 :|
e |"D"f2 a "G"gfe | "D"dcd A2 e | "D"fga "Em"bge | "Bm"fdf "A"efg |
"D"f2 a "G"gfe | "D"dcd Ade | "Bm"fdB "A"Ace | "D"d3"D"d2 :|
